X:21
T:Bodmin Riding 
M:4/4
L:1/8
R:March
K:D
A2|: d2 d2 d2 d2 | dcde dcde | f2 f2 f2 f2 | fefg fefg |
  | a2 a2a2 ba | g2g2g2 ag | fede g2 f2 |1 e6 A2:|2 e6cd|
  | e3 e e3 e | edcB A2 fg| a3 a a3 a | agfe d2(ag) |
  |f2e2 d2 ag | f2e2d2 ag| fgfd efec |1 d2d2d2 cd:|2 d2d2d2A2|
